!!!PDT:	1923
!!!LANG: Non-Tone
!!!LING_GROUP: Siouan
!!!REG: Dakotas
!!!COM: Anon.
!!!OTL: Song of the Little River Women Society (a)
!!!ODT: <1918//
!!!MPN: Wopite [Scattered Corn, Mrs. Holding Eagle]
!!!MLC: Fort Berthold Reservation, North Dakota, United States of America
!! Song was recorded during either the summer of 1912, 1915, or 1918.
!!!AGN: monody
!!!SOCIAL_FUNCTION: Ceremony of the Little River Women Society
!!!AMT: irregular
!!!RWG: Transcribed pitches, durations, and meters are only approximate.
!! Drum not recorded.
**kern
*ICvox
*Ifemale
*clefF4
*k[b-e-]
*M2/4
*MM168
4G
=1
8d
8d
4d
*M3/4
=2
8d
8d
4d
4c
*M2/4
=3
8d
8d
4d
=4
[2c
*M3/4
=5
2c]
4c
*M2/4
=6
8d
8d
4d
=7
8d
8d
4d
*M3/4
=8
4c
16d
[8.c
4c]
*M2/4
=9
16c
8.B-
4B-
*M3/4
=10
4G
2G
*M2/4
=11
16c
8.c
4c
*M3/4
=12
8c
8B-
8B-
8G
4G
*M2/4
=13
16B-
8B-
8B-
8G
=14
2G
=15
2G
==
*-
!!!CNT: Mandan
!!!TXO: Mandan
!!!OCY: United States
!!!OCL: Frances Densmore
!!!YOR: Frances Densmore, "Mandan and Hidatsa Music",
!!!YOR: Bulletin 80, page 107, No. 45
!!!PPR: Smithsonian Institution, Bureau of American Ethnology
!!!PPR: Government Printing Office
!!!PDT: 1923
!!!PPP: Washington, DC, United States of America
!!!YEC: Electronic Copyright 2000 David Huron
!!!YER: August 2000
!!!YEN: United States of America
!!!ENC: David Huron
!!!RDT: August 16, 2000
!!!EEV: Release 1.0
!!!AIN: tom, vox
